ibeto-front-end/src/components/images/whyparticipate/certificate.svg

<svg width="100" height="100" viewBox="0 0 100 100" fill="none" xmlns="http://www.w3.org/2000/svg">
<rect width="100" height="100" fill="#E5E5E5"/>
<rect width="100" height="100" fill="white"/>
<mask id="path-1-inside-1" fill="white">
<path fill-rule="evenodd" clip-rule="evenodd" d="M3.94832 10.2497C3.25676 10.5509 2.45813 11.3682 2.19743 12.0414C2.072 12.3648 2 14.7936 2 18.6935C2 24.5948 2.01466 24.8504 2.37111 25.1981C2.80809 25.6244 3.80489 25.678 4.33038 25.3035C4.67124 25.0604 4.69555 24.7192 4.78332 18.9229L4.87609 12.7989H49.5019H94.1278L94.1747 46.237L94.2215 79.6753L93.8036 79.7743C93.5737 79.8286 89.4611 79.8507 84.6645 79.823L75.9435 79.7729L75.8893 78.3701L75.8351 76.9672H83.14H90.4447L90.8483 76.5484C91.2493 76.1319 91.2517 76.0843 91.2517 68.4934C91.2517 61.0986 91.24 60.8459 90.8806 60.4952C90.328 59.9562 89.3349 60.0125 88.853 60.6102C88.4799 61.0729 88.4684 61.2843 88.4684 67.6696V74.2521H82.1595H75.8507V71.2654V68.2787H77.0642C79.6035 68.2787 80.5534 67.1733 80.4535 64.3338L80.3968 62.7173L81.6405 61.4309C83.8293 59.1672 83.7779 57.7365 81.4297 55.5451C80.9126 55.0626 80.4829 54.5331 80.4747 54.3686C80.4664 54.204 80.4402 53.4177 80.4164 52.6213C80.3346 49.8784 79.2465 48.9354 76.1448 48.9185L74.6761 48.9106L73.5116 47.8198C71.2044 45.6585 69.7202 45.677 67.507 47.8944L66.4928 48.9106L65.0021 48.9185C61.7639 48.9357 60.6475 50.0008 60.6393 53.08L60.6352 54.6247L59.5935 55.6141C57.3364 57.7578 57.3075 59.3004 59.4837 61.4512L60.5424 62.4974L60.6486 64.3643C60.8085 67.1789 61.5415 68.0504 63.9038 68.2354L65.0885 68.3283V71.2902V74.2521H37.812H10.5355V46.2859V18.3197H49.5019H88.4684V36.3964C88.4684 54.41 88.4697 54.4746 88.853 54.95C89.301 55.5055 90.1848 55.5924 90.8392 55.1451L91.2517 54.8635V35.6363C91.2517 18.5272 91.22 16.3648 90.9628 16.007L90.6741 15.6046H49.5019H8.32982L8.0411 16.007C7.78243 16.367 7.75219 19.5388 7.75219 46.2946V76.18L8.18156 76.5737L8.61112 76.9672H36.8497H65.0885V78.4153V79.8634H35.2295C18.807 79.8634 5.2383 79.814 5.07686 79.7535C4.81115 79.6542 4.78332 77.3168 4.78332 55.1361C4.78332 30.8698 4.77961 30.6248 4.41221 30.2664C4.18249 30.0424 3.79376 29.9044 3.39166 29.9044C2.98956 29.9044 2.60083 30.0424 2.37111 30.2664C2.00353 30.625 2 30.867 2.00408 55.2912C2.00798 78.8353 2.02357 79.9867 2.34903 80.6779C2.53644 81.0762 2.86301 81.5522 3.07492 81.736C4.05947 82.59 2.99439 82.5621 34.9823 82.5706L65.0885 82.5786V85.5383C65.0885 90.3615 65.4103 90.6826 68.7341 89.1777L70.5503 88.3553L72.3665 89.1777C73.3654 89.63 74.338 90 74.5279 90C74.7175 90 75.0929 89.8311 75.3617 89.6248L75.8507 89.2497V85.9141V82.5786L84.9892 82.5706C94.598 82.5623 95.0129 82.5306 95.929 81.736C96.1409 81.5522 96.4674 81.0762 96.6549 80.6779C96.9818 79.9838 96.9959 78.5672 96.9998 46.2349C97.0032 17.999 96.9623 12.4209 96.7484 11.9333C96.4394 11.2288 95.6152 10.4478 94.9043 10.1858C94.5403 10.0515 80.7601 9.99541 49.4435 10.0003C12.3111 10.0061 4.40831 10.0495 3.94832 10.2497ZM19.5006 27.0084C18.6728 27.3361 18.4314 28.5564 19.071 29.1804C19.4384 29.5388 19.6895 29.5424 44.0281 29.5424C68.3667 29.5424 68.6178 29.5388 68.9852 29.1804C69.4541 28.723 69.4615 27.8992 69.0015 27.3451L68.6469 26.9177L44.2764 26.883C30.4544 26.8631 19.7305 26.9176 19.5006 27.0084ZM19.0846 35.6307C18.5743 36.2633 18.5988 36.8817 19.1554 37.4245L19.6108 37.8689H49.4685H79.3261L79.815 37.4937C80.4541 37.0033 80.4816 36.1037 79.8746 35.5473L79.4451 35.1537H49.457H19.469L19.0846 35.6307ZM35.8951 43.4802C19.6655 43.5684 19.2196 43.58 18.9632 43.9221C18.5956 44.4126 18.6351 45.1721 19.0545 45.6775L19.4093 46.1049L36.4031 46.1529C54.9363 46.2053 54.5429 46.2254 54.8038 45.2118C54.9686 44.5714 54.7626 43.889 54.3377 43.6672C53.7962 43.3845 53.7009 43.3836 35.8951 43.4802ZM71.7282 49.9153C73.0468 51.2818 73.8627 51.6167 75.8846 51.6217C77.7578 51.6264 77.6895 51.5501 77.668 53.6168C77.6496 55.3714 77.9525 56.0464 79.3716 57.4137C80.6614 58.6562 80.661 58.6687 79.3022 59.9035C77.9968 61.09 77.6494 61.9084 77.63 63.8439L77.6134 65.473L75.6651 65.5635C73.3722 65.67 72.9154 65.8803 71.4991 67.4815L70.5802 68.5204L69.5507 67.4341C67.985 65.782 67.7371 65.6685 65.4684 65.5635L63.5113 65.473L63.4124 63.6629C63.2966 61.548 63.1276 61.171 61.67 59.7774C61.101 59.2332 60.6352 58.7011 60.6352 58.595C60.6352 58.4887 61.1013 57.96 61.6708 57.4199C63.1183 56.0476 63.2963 55.6499 63.4124 53.5263L63.5113 51.7162L65.3669 51.6197C67.5349 51.5068 67.9214 51.3419 69.35 49.9201C69.9077 49.3649 70.4529 48.9106 70.5615 48.9106C70.67 48.9106 71.1949 49.3627 71.7282 49.9153ZM22.5574 52.1792C22.1354 52.4193 21.8566 53.4594 21.8554 54.7981C21.853 57.3219 20.9785 62.042 19.8986 65.3605C19.5273 66.5012 19.274 67.5979 19.3308 67.8184C19.4377 68.2338 20.1346 68.6407 20.7393 68.6407C21.6447 68.6407 22.4969 66.9693 23.3623 63.4964L23.5843 62.6056L24.0235 63.5766C24.659 64.9812 25.319 65.7386 26.262 66.1455C27.367 66.6225 28.4506 66.4666 29.509 65.6787L30.2971 65.0922L31.1525 65.6106C32.3736 66.3509 33.8864 66.4999 39.5108 66.4344C44.33 66.3783 44.3404 66.3772 44.6942 65.9507C45.1366 65.4173 45.1496 64.6344 44.7239 64.1419C44.4103 63.779 44.206 63.7643 38.7994 63.7145C32.3907 63.6555 32.4961 63.6809 31.8613 62.0481C31.4779 61.062 31.2629 60.8641 30.5704 60.86C29.8937 60.856 29.3389 61.3029 28.9364 62.1759C28.5053 63.111 27.7334 63.8396 27.3326 63.6897C26.6268 63.4254 25.7708 60.4757 25.1975 56.332C24.7048 52.7721 24.6646 52.5829 24.3309 52.2574C24.0177 51.9519 23.0335 51.9085 22.5574 52.1792ZM69.1342 53.4981C67.2771 54.0071 65.8899 55.3649 65.3394 57.2119C64.612 59.6528 65.8011 62.1897 68.2429 63.4064C68.8855 63.7267 69.3988 63.8251 70.4696 63.8333C72.2888 63.8472 73.6817 63.2245 74.7327 61.9276C75.6455 60.801 75.9333 59.9757 75.9279 58.4991C75.9156 55.117 72.4732 52.5831 69.1342 53.4981ZM71.9425 56.4884C72.7495 57.0566 73.1292 57.7175 73.1292 58.5539C73.1292 59.6103 72.6064 60.4178 71.6213 60.883C70.2763 61.5181 68.8126 61.0171 68.173 59.7022C67.7724 58.8783 67.7933 58.2779 68.2539 57.3972C68.9391 56.0867 70.7414 55.6427 71.9425 56.4884ZM70.3833 71.1749C71.2157 71.1749 71.9416 70.8876 72.5571 70.3149L73.0674 69.8401V78.1221V86.4042L72.6499 86.2782C72.4202 86.2089 71.9225 85.9998 71.544 85.8136C70.6609 85.379 70.5379 85.3851 69.2813 85.9273C68.7044 86.1761 68.1513 86.3798 68.052 86.3798C67.9381 86.3798 67.8718 83.3569 67.8718 78.1561V69.9322L68.8182 70.5537C69.4259 70.9524 69.986 71.1749 70.3833 71.1749Z"/>
</mask>
<path fill-rule="evenodd" clip-rule="evenodd" d="M3.94832 10.2497C3.25676 10.5509 2.45813 11.3682 2.19743 12.0414C2.072 12.3648 2 14.7936 2 18.6935C2 24.5948 2.01466 24.8504 2.37111 25.1981C2.80809 25.6244 3.80489 25.678 4.33038 25.3035C4.67124 25.0604 4.69555 24.7192 4.78332 18.9229L4.87609 12.7989H49.5019H94.1278L94.1747 46.237L94.2215 79.6753L93.8036 79.7743C93.5737 79.8286 89.4611 79.8507 84.6645 79.823L75.9435 79.7729L75.8893 78.3701L75.8351 76.9672H83.14H90.4447L90.8483 76.5484C91.2493 76.1319 91.2517 76.0843 91.2517 68.4934C91.2517 61.0986 91.24 60.8459 90.8806 60.4952C90.328 59.9562 89.3349 60.0125 88.853 60.6102C88.4799 61.0729 88.4684 61.2843 88.4684 67.6696V74.2521H82.1595H75.8507V71.2654V68.2787H77.0642C79.6035 68.2787 80.5534 67.1733 80.4535 64.3338L80.3968 62.7173L81.6405 61.4309C83.8293 59.1672 83.7779 57.7365 81.4297 55.5451C80.9126 55.0626 80.4829 54.5331 80.4747 54.3686C80.4664 54.204 80.4402 53.4177 80.4164 52.6213C80.3346 49.8784 79.2465 48.9354 76.1448 48.9185L74.6761 48.9106L73.5116 47.8198C71.2044 45.6585 69.7202 45.677 67.507 47.8944L66.4928 48.9106L65.0021 48.9185C61.7639 48.9357 60.6475 50.0008 60.6393 53.08L60.6352 54.6247L59.5935 55.6141C57.3364 57.7578 57.3075 59.3004 59.4837 61.4512L60.5424 62.4974L60.6486 64.3643C60.8085 67.1789 61.5415 68.0504 63.9038 68.2354L65.0885 68.3283V71.2902V74.2521H37.812H10.5355V46.2859V18.3197H49.5019H88.4684V36.3964C88.4684 54.41 88.4697 54.4746 88.853 54.95C89.301 55.5055 90.1848 55.5924 90.8392 55.1451L91.2517 54.8635V35.6363C91.2517 18.5272 91.22 16.3648 90.9628 16.007L90.6741 15.6046H49.5019H8.32982L8.0411 16.007C7.78243 16.367 7.75219 19.5388 7.75219 46.2946V76.18L8.18156 76.5737L8.61112 76.9672H36.8497H65.0885V78.4153V79.8634H35.2295C18.807 79.8634 5.2383 79.814 5.07686 79.7535C4.81115 79.6542 4.78332 77.3168 4.78332 55.1361C4.78332 30.8698 4.77961 30.6248 4.41221 30.2664C4.18249 30.0424 3.79376 29.9044 3.39166 29.9044C2.98956 29.9044 2.60083 30.0424 2.37111 30.2664C2.00353 30.625 2 30.867 2.00408 55.2912C2.00798 78.8353 2.02357 79.9867 2.34903 80.6779C2.53644 81.0762 2.86301 81.5522 3.07492 81.736C4.05947 82.59 2.99439 82.5621 34.9823 82.5706L65.0885 82.5786V85.5383C65.0885 90.3615 65.4103 90.6826 68.7341 89.1777L70.5503 88.3553L72.3665 89.1777C73.3654 89.63 74.338 90 74.5279 90C74.7175 90 75.0929 89.8311 75.3617 89.6248L75.8507 89.2497V85.9141V82.5786L84.9892 82.5706C94.598 82.5623 95.0129 82.5306 95.929 81.736C96.1409 81.5522 96.4674 81.0762 96.6549 80.6779C96.9818 79.9838 96.9959 78.5672 96.9998 46.2349C97.0032 17.999 96.9623 12.4209 96.7484 11.9333C96.4394 11.2288 95.6152 10.4478 94.9043 10.1858C94.5403 10.0515 80.7601 9.99541 49.4435 10.0003C12.3111 10.0061 4.40831 10.0495 3.94832 10.2497ZM19.5006 27.0084C18.6728 27.3361 18.4314 28.5564 19.071 29.1804C19.4384 29.5388 19.6895 29.5424 44.0281 29.5424C68.3667 29.5424 68.6178 29.5388 68.9852 29.1804C69.4541 28.723 69.4615 27.8992 69.0015 27.3451L68.6469 26.9177L44.2764 26.883C30.4544 26.8631 19.7305 26.9176 19.5006 27.0084ZM19.0846 35.6307C18.5743 36.2633 18.5988 36.8817 19.1554 37.4245L19.6108 37.8689H49.4685H79.3261L79.815 37.4937C80.4541 37.0033 80.4816 36.1037 79.8746 35.5473L79.4451 35.1537H49.457H19.469L19.0846 35.6307ZM35.8951 43.4802C19.6655 43.5684 19.2196 43.58 18.9632 43.9221C18.5956 44.4126 18.6351 45.1721 19.0545 45.6775L19.4093 46.1049L36.4031 46.1529C54.9363 46.2053 54.5429 46.2254 54.8038 45.2118C54.9686 44.5714 54.7626 43.889 54.3377 43.6672C53.7962 43.3845 53.7009 43.3836 35.8951 43.4802ZM71.7282 49.9153C73.0468 51.2818 73.8627 51.6167 75.8846 51.6217C77.7578 51.6264 77.6895 51.5501 77.668 53.6168C77.6496 55.3714 77.9525 56.0464 79.3716 57.4137C80.6614 58.6562 80.661 58.6687 79.3022 59.9035C77.9968 61.09 77.6494 61.9084 77.63 63.8439L77.6134 65.473L75.6651 65.5635C73.3722 65.67 72.9154 65.8803 71.4991 67.4815L70.5802 68.5204L69.5507 67.4341C67.985 65.782 67.7371 65.6685 65.4684 65.5635L63.5113 65.473L63.4124 63.6629C63.2966 61.548 63.1276 61.171 61.67 59.7774C61.101 59.2332 60.6352 58.7011 60.6352 58.595C60.6352 58.4887 61.1013 57.96 61.6708 57.4199C63.1183 56.0476 63.2963 55.6499 63.4124 53.5263L63.5113 51.7162L65.3669 51.6197C67.5349 51.5068 67.9214 51.3419 69.35 49.9201C69.9077 49.3649 70.4529 48.9106 70.5615 48.9106C70.67 48.9106 71.1949 49.3627 71.7282 49.9153ZM22.5574 52.1792C22.1354 52.4193 21.8566 53.4594 21.8554 54.7981C21.853 57.3219 20.9785 62.042 19.8986 65.3605C19.5273 66.5012 19.274 67.5979 19.3308 67.8184C19.4377 68.2338 20.1346 68.6407 20.7393 68.6407C21.6447 68.6407 22.4969 66.9693 23.3623 63.4964L23.5843 62.6056L24.0235 63.5766C24.659 64.9812 25.319 65.7386 26.262 66.1455C27.367 66.6225 28.4506 66.4666 29.509 65.6787L30.2971 65.0922L31.1525 65.6106C32.3736 66.3509 33.8864 66.4999 39.5108 66.4344C44.33 66.3783 44.3404 66.3772 44.6942 65.9507C45.1366 65.4173 45.1496 64.6344 44.7239 64.1419C44.4103 63.779 44.206 63.7643 38.7994 63.7145C32.3907 63.6555 32.4961 63.6809 31.8613 62.0481C31.4779 61.062 31.2629 60.8641 30.5704 60.86C29.8937 60.856 29.3389 61.3029 28.9364 62.1759C28.5053 63.111 27.7334 63.8396 27.3326 63.6897C26.6268 63.4254 25.7708 60.4757 25.1975 56.332C24.7048 52.7721 24.6646 52.5829 24.3309 52.2574C24.0177 51.9519 23.0335 51.9085 22.5574 52.1792ZM69.1342 53.4981C67.2771 54.0071 65.8899 55.3649 65.3394 57.2119C64.612 59.6528 65.8011 62.1897 68.2429 63.4064C68.8855 63.7267 69.3988 63.8251 70.4696 63.8333C72.2888 63.8472 73.6817 63.2245 74.7327 61.9276C75.6455 60.801 75.9333 59.9757 75.9279 58.4991C75.9156 55.117 72.4732 52.5831 69.1342 53.4981ZM71.9425 56.4884C72.7495 57.0566 73.1292 57.7175 73.1292 58.5539C73.1292 59.6103 72.6064 60.4178 71.6213 60.883C70.2763 61.5181 68.8126 61.0171 68.173 59.7022C67.7724 58.8783 67.7933 58.2779 68.2539 57.3972C68.9391 56.0867 70.7414 55.6427 71.9425 56.4884ZM70.3833 71.1749C71.2157 71.1749 71.9416 70.8876 72.5571 70.3149L73.0674 69.8401V78.1221V86.4042L72.6499 86.2782C72.4202 86.2089 71.9225 85.9998 71.544 85.8136C70.6609 85.379 70.5379 85.3851 69.2813 85.9273C68.7044 86.1761 68.1513 86.3798 68.052 86.3798C67.9381 86.3798 67.8718 83.3569 67.8718 78.1561V69.9322L68.8182 70.5537C69.4259 70.9524 69.986 71.1749 70.3833 71.1749Z" fill="#282626" stroke="white" stroke-width="2" mask="url(#path-1-inside-1)"/>
</svg>

<svg xmlns="http://www.w3.org/2000/svg" width="100" height="100" fill="none" xmlns:v="https://vecta.io/nano"><path fill="#e5e5e5" d="M0 0h100v100H0z"/><path fill="#fff" d="M0 0h100v100H0z"/><mask id="A" fill="#fff"><path fill-rule="evenodd" d="M3.948 10.25c-.692.301-1.49 1.118-1.751 1.792-.125.323-.197 2.752-.197 6.652 0 5.901.015 6.157.371 6.505.437.426 1.434.48 1.959.105.341-.243.365-.584.453-6.381l.093-6.124h44.626 44.626l.047 33.438.047 33.438-.418.099c-.23.054-4.343.076-9.139.049l-8.721-.05-.054-1.403-.054-1.403h7.305 7.305l.404-.419c.401-.416.403-.464.403-8.055l-.371-7.998c-.553-.539-1.546-.483-2.028.115-.373.463-.385.674-.385 7.059v6.582H82.16h-6.309v-2.987-2.987h1.213c2.539 0 3.489-1.105 3.389-3.945l-.057-1.616 1.244-1.286c2.189-2.264 2.137-3.694-.211-5.886-.517-.482-.947-1.012-.955-1.176l-.058-1.747c-.082-2.743-1.17-3.686-4.272-3.703l-1.469-.008-1.165-1.091c-2.307-2.161-3.791-2.143-6.005.075l-1.014 1.016-1.491.008c-3.238.017-4.355 1.082-4.363 4.161l-.004 1.545-1.042.989c-2.257 2.144-2.286 3.686-.11 5.837l1.059 1.046.106 1.867c.16 2.815.893 3.686 3.255 3.871l1.185.093v2.962 2.962H37.812 10.536V46.286 18.32h38.966 38.967v18.077c0 18.014.001 18.078.385 18.554.448.555 1.332.642 1.986.195l.412-.282V35.636c0-17.109-.032-19.271-.289-19.629l-.289-.402H49.502 8.33l-.289.402c-.259.36-.289 3.532-.289 30.288V76.18l.429.394.43.394H36.85h28.239v1.448 1.448H35.23c-16.423 0-29.991-.049-30.153-.11-.266-.099-.294-2.437-.294-24.617 0-24.266-.004-24.511-.371-24.87-.23-.224-.618-.362-1.021-.362s-.791.138-1.021.362c-.368.359-.371.601-.367 25.025l.345 25.387c.187.398.514.874.726 1.058.985.854-.081.826 31.907.835l30.106.008v2.96c0 4.823.322 5.144 3.646 3.639l1.816-.822 1.816.822c.999.452 1.971.822 2.161.822s.565-.169.834-.375l.489-.375v-3.336-3.336l9.138-.008c9.609-.008 10.024-.04 10.94-.835.212-.184.538-.66.726-1.058.327-.694.341-2.111.345-34.443l-.251-34.302c-.309-.704-1.133-1.485-1.844-1.747-.364-.134-14.144-.19-45.461-.186l-45.495.249zm15.552 16.759c-.828.328-1.069 1.548-.43 2.172.367.358.618.362 24.957.362s24.59-.004 24.957-.362c.469-.457.476-1.281.016-1.835l-.355-.427-24.37-.035c-13.822-.02-24.546.035-24.776.125zm-.416 8.622c-.51.633-.486 1.251.071 1.794l.455.444h29.858 29.858l.489-.375c.639-.49.667-1.39.06-1.946l-.43-.394H49.457 19.469l-.384.477zm16.811 7.85c-16.23.088-16.675.1-16.932.442-.368.49-.328 1.25.091 1.755l.355.427 16.994.048c18.533.052 18.14.072 18.401-.941.165-.64-.041-1.323-.466-1.545-.541-.283-.637-.284-18.443-.187zm35.833 6.435c1.319 1.366 2.135 1.701 4.156 1.706 1.873.005 1.805-.072 1.783 1.995-.018 1.755.284 2.43 1.704 3.797 1.29 1.242 1.289 1.255-.069 2.49-1.305 1.187-1.653 2.005-1.672 3.94l-.017 1.629-1.948.091c-2.293.106-2.75.317-4.166 1.918l-.919 1.039-1.029-1.086c-1.566-1.652-1.814-1.766-4.082-1.871l-1.957-.091-.099-1.81c-.116-2.115-.285-2.492-1.742-3.886-.569-.544-1.035-1.076-1.035-1.182s.466-.635 1.036-1.175c1.447-1.372 1.626-1.77 1.742-3.894l.099-1.81 1.856-.096c2.168-.113 2.555-.278 3.983-1.7.558-.555 1.103-1.009 1.212-1.009s.633.452 1.167 1.005zm-49.171 2.264c-.422.24-.701 1.28-.702 2.619-.002 2.524-.877 7.244-1.957 10.562-.371 1.141-.625 2.237-.568 2.458.107.415.804.822 1.409.822.905 0 1.758-1.671 2.623-5.144l.222-.891.439.971c.636 1.405 1.296 2.162 2.239 2.569 1.105.477 2.189.321 3.247-.467l.788-.587.855.518c1.221.74 2.734.889 8.358.824 4.819-.056 4.83-.057 5.183-.484.442-.533.455-1.316.03-1.809-.314-.363-.518-.378-5.925-.427-6.409-.059-6.303-.034-6.938-1.666-.383-.986-.598-1.184-1.291-1.188-.677-.004-1.232.443-1.634 1.316-.431.935-1.203 1.664-1.604 1.514-.706-.264-1.562-3.214-2.135-7.358-.493-3.56-.533-3.749-.867-4.075-.313-.305-1.297-.349-1.773-.078zm46.577 1.319c-1.857.509-3.244 1.867-3.795 3.714-.727 2.441.462 4.978 2.904 6.194.643.32 1.156.419 2.227.427 1.819.014 3.212-.609 4.263-1.906.913-1.127 1.201-1.952 1.195-3.428-.012-3.382-3.455-5.916-6.794-5.001zm2.808 2.99c.807.568 1.187 1.229 1.187 2.066 0 1.056-.523 1.864-1.508 2.329-1.345.635-2.809.134-3.448-1.181-.401-.824-.38-1.424.081-2.305.685-1.31 2.487-1.755 3.689-.909zm-1.559 14.686a3.09 3.09 0 0 0 2.174-.86l.51-.475v8.282 8.282l-.418-.126c-.23-.069-.727-.278-1.106-.465-.883-.435-1.006-.428-2.263.114-.577.249-1.13.453-1.229.453-.114 0-.18-3.023-.18-8.224v-8.224l.946.622c.608.399 1.168.621 1.565.621z"/></mask><path fill-rule="evenodd" d="M3.948 10.25c-.692.301-1.49 1.118-1.751 1.792-.125.323-.197 2.752-.197 6.652 0 5.901.015 6.157.371 6.505.437.426 1.434.48 1.959.105.341-.243.365-.584.453-6.381l.093-6.124h44.626 44.626l.047 33.438.047 33.438-.418.099c-.23.054-4.343.076-9.139.049l-8.721-.05-.054-1.403-.054-1.403h7.305 7.305l.404-.419c.401-.416.403-.464.403-8.055l-.371-7.998c-.553-.539-1.546-.483-2.028.115-.373.463-.385.674-.385 7.059v6.582H82.16h-6.309v-2.987-2.987h1.213c2.539 0 3.489-1.105 3.389-3.945l-.057-1.616 1.244-1.286c2.189-2.264 2.137-3.694-.211-5.886-.517-.482-.947-1.012-.955-1.176l-.058-1.747c-.082-2.743-1.17-3.686-4.272-3.703l-1.469-.008-1.165-1.091c-2.307-2.161-3.791-2.143-6.005.075l-1.014 1.016-1.491.008c-3.238.017-4.355 1.082-4.363 4.161l-.004 1.545-1.042.989c-2.257 2.144-2.286 3.686-.11 5.837l1.059 1.046.106 1.867c.16 2.815.893 3.686 3.255 3.871l1.185.093v2.962 2.962H37.812 10.536V46.286 18.32h38.966 38.967v18.077c0 18.014.001 18.078.385 18.554.448.555 1.332.642 1.986.195l.412-.282V35.636c0-17.109-.032-19.271-.289-19.629l-.289-.402H49.502 8.33l-.289.402c-.259.36-.289 3.532-.289 30.288V76.18l.429.394.43.394H36.85h28.239v1.448 1.448H35.23c-16.423 0-29.991-.049-30.153-.11-.266-.099-.294-2.437-.294-24.617 0-24.266-.004-24.511-.371-24.87-.23-.224-.618-.362-1.021-.362s-.791.138-1.021.362c-.368.359-.371.601-.367 25.025l.345 25.387c.187.398.514.874.726 1.058.985.854-.081.826 31.907.835l30.106.008v2.96c0 4.823.322 5.144 3.646 3.639l1.816-.822 1.816.822c.999.452 1.971.822 2.161.822s.565-.169.834-.375l.489-.375v-3.336-3.336l9.138-.008c9.609-.008 10.024-.04 10.94-.835.212-.184.538-.66.726-1.058.327-.694.341-2.111.345-34.443l-.251-34.302c-.309-.704-1.133-1.485-1.844-1.747-.364-.134-14.144-.19-45.461-.186l-45.495.249zm15.552 16.759c-.828.328-1.069 1.548-.43 2.172.367.358.618.362 24.957.362s24.59-.004 24.957-.362c.469-.457.476-1.281.016-1.835l-.355-.427-24.37-.035c-13.822-.02-24.546.035-24.776.125zm-.416 8.622c-.51.633-.486 1.251.071 1.794l.455.444h29.858 29.858l.489-.375c.639-.49.667-1.39.06-1.946l-.43-.394H49.457 19.469l-.384.477zm16.811 7.85c-16.23.088-16.675.1-16.932.442-.368.49-.328 1.25.091 1.755l.355.427 16.994.048c18.533.052 18.14.072 18.401-.941.165-.64-.041-1.323-.466-1.545-.541-.283-.637-.284-18.443-.187zm35.833 6.435c1.319 1.366 2.135 1.701 4.156 1.706 1.873.005 1.805-.072 1.783 1.995-.018 1.755.284 2.43 1.704 3.797 1.29 1.242 1.289 1.255-.069 2.49-1.305 1.187-1.653 2.005-1.672 3.94l-.017 1.629-1.948.091c-2.293.106-2.75.317-4.166 1.918l-.919 1.039-1.029-1.086c-1.566-1.652-1.814-1.766-4.082-1.871l-1.957-.091-.099-1.81c-.116-2.115-.285-2.492-1.742-3.886-.569-.544-1.035-1.076-1.035-1.182s.466-.635 1.036-1.175c1.447-1.372 1.626-1.77 1.742-3.894l.099-1.81 1.856-.096c2.168-.113 2.555-.278 3.983-1.7.558-.555 1.103-1.009 1.212-1.009s.633.452 1.167 1.005zm-49.171 2.264c-.422.24-.701 1.28-.702 2.619-.002 2.524-.877 7.244-1.957 10.562-.371 1.141-.625 2.237-.568 2.458.107.415.804.822 1.409.822.905 0 1.758-1.671 2.623-5.144l.222-.891.439.971c.636 1.405 1.296 2.162 2.239 2.569 1.105.477 2.189.321 3.247-.467l.788-.587.855.518c1.221.74 2.734.889 8.358.824 4.819-.056 4.83-.057 5.183-.484.442-.533.455-1.316.03-1.809-.314-.363-.518-.378-5.925-.427-6.409-.059-6.303-.034-6.938-1.666-.383-.986-.598-1.184-1.291-1.188-.677-.004-1.232.443-1.634 1.316-.431.935-1.203 1.664-1.604 1.514-.706-.264-1.562-3.214-2.135-7.358-.493-3.56-.533-3.749-.867-4.075-.313-.305-1.297-.349-1.773-.078zm46.577 1.319c-1.857.509-3.244 1.867-3.795 3.714-.727 2.441.462 4.978 2.904 6.194.643.32 1.156.419 2.227.427 1.819.014 3.212-.609 4.263-1.906.913-1.127 1.201-1.952 1.195-3.428-.012-3.382-3.455-5.916-6.794-5.001zm2.808 2.99c.807.568 1.187 1.229 1.187 2.066 0 1.056-.523 1.864-1.508 2.329-1.345.635-2.809.134-3.448-1.181-.401-.824-.38-1.424.081-2.305.685-1.31 2.487-1.755 3.689-.909zm-1.559 14.686a3.09 3.09 0 0 0 2.174-.86l.51-.475v8.282 8.282l-.418-.126c-.23-.069-.727-.278-1.106-.465-.883-.435-1.006-.428-2.263.114-.577.249-1.13.453-1.229.453-.114 0-.18-3.023-.18-8.224v-8.224l.946.622c.608.399 1.168.621 1.565.621z" fill="#282626" stroke="#fff" stroke-width="2" mask="url(#A)"/></svg>
